X:1000
T:Reel 1000
M:4/4
K:Gmaj
L:1/8
B>G (3GGG dcAG|FADA FAdc|B>G (3GGG dcBG|cADA =fdcA|BGGG GGGdBG|cAAG cAAc|BAGA GBdg|fdcA BGGc|Bdgd BdedcB|cAFA GAFA|BdGd BdGd|cAfA GGGc|Bdgd BdGd|c2AG FGBc|BdGf gdBd|cAFA BGG2|
